!! 00000] TT[WS
!!!OTL: Weizuizui kaihua
!!!ARE: Asia, China, Shanxi Shouyang
!! Ethnic Group: Han
!! WII, 113 (2)
!!!SCT: J0571
!!!YEM: Copyright 1995, estate of Helmut Schaffrath.
**kern
*ICvox
*Ivox
*M2/4
*k[b-e-]
*B-:
{8ddd
16ddd
16ccc
8bb-
16bb-
16ccc
=1
16ddd
16fff
16ddd
16ccc
4bb-
=2
8bb-
16bb-
16ddd
8ccc
16ccc
16ddd
=3
16bb-
16aa
16gg
16dd
4ff}
=4
{8ff
16ff
16dd
8ff
16ff
16gg
=5
8ddd
16ddd
16ccc
4bb-
=6
8gg
16ff
16cc
4b-
=7
8ccc
8bb-
[4ddd
=8
4ddd]
[4gg
=9
8gg]
8aa
16gg
16ff
16dd
16cc
=10
2b-}
==
!!!AGN: Xiaodiao. Qingge, Sichun
!!!ONB: ESAC (Essen Associative Code) Database: CHINA
!!!AMT: simple duple
!!!AIN: vox
!!!EED: Helmut Schaffrath
!!!EEV: 1.0
*-
!!!ONB: Tied note syntax fixed by Craig Sapp, 2004/05/03/
